;START_OF_HEADER
;HEADER_VERSION:0.1
;FLAVOR:Griffin
;GENERATOR.NAME:Cura_SteamEngine
;GENERATOR.VERSION:3.3.1
;GENERATOR.BUILD_DATE:2018-04-25
;TARGET_MACHINE.NAME:Ultimaker 3
;EXTRUDER_TRAIN.0.INITIAL_TEMPERATURE:255
;EXTRUDER_TRAIN.0.MATERIAL.VOLUME_USED:4940
;EXTRUDER_TRAIN.0.MATERIAL.GUID:12f41353-1a33-415e-8b4f-a775a6c70cc6
;EXTRUDER_TRAIN.0.NOZZLE.DIAMETER:0.4
;EXTRUDER_TRAIN.0.NOZZLE.NAME:AA 0.4
;BUILD_PLATE.TYPE:glass
;BUILD_PLATE.INITIAL_TEMPERATURE:50
;PRINT.TIME:6311
;PRINT.SIZE.MIN.X:9
;PRINT.SIZE.MIN.Y:6
;PRINT.SIZE.MIN.Z:0.27
;PRINT.SIZE.MAX.X:146.69
;PRINT.SIZE.MAX.Y:127.657
;PRINT.SIZE.MAX.Z:35.67
;END_OF_HEADER
;Generated with Cura_SteamEngine 3.3.1
T0
M82 ;absolute extrusion mode

G92 E0
M109 S255
G0 F15000 X9 Y6 Z2
G280
G1 F1500 E-6.5
;LAYER_COUNT:356
;LAYER:0
M107
M204 S625
M205 X6 Y6
G0 F5454.5 X89.324 Y90.336 Z0.27
M204 S500
M205 X5 Y5
;TYPE:SKIRT
G1 F1500 E0
G1 F1200 X89.98 Y89.737 E0.01579
G1 X90.687 Y89.199 E0.03158
G1 X91.439 Y88.727 E0.04737
G1 X92.231 Y88.324 E0.06316
G1 X93.056 Y87.994 E0.07896
G1 X93.907 Y87.74 E0.09474
G1 X94.778 Y87.564 E0.11054
G1 X95.661 Y87.466 E0.12633
G1 X96.303 Y87.445 E0.13775
G1 X136.697 Y87.445 E0.85579
G1 X137.584 Y87.485 E0.87158
G1 X138.465 Y87.605 E0.88738
G1 X139.331 Y87.803 E0.90317
G1 X140.175 Y88.078 E0.91895
G1 X140.992 Y88.428 E0.93475
G1 X141.773 Y88.851 E0.95054
G1 X142.514 Y89.341 E0.96633
G1 X143.207 Y89.897 E0.98213
G1 X143.676 Y90.336 E0.99354
G1 X143.799 Y90.459 E0.99664
G1 X144.398 Y91.115 E1.01243
G1 X144.936 Y91.822 E1.02822
G1 X145.408 Y92.574 E1.044
G1 X145.811 Y93.366 E1.0598
G1 X146.141 Y94.191 E1.07559
G1 X146.395 Y95.042 E1.09138
G1 X146.571 Y95.913 E1.10718
G1 X146.669 Y96.796 E1.12297
G1 X146.69 Y97.438 E1.13439
G1 X146.69 Y117.664 E1.49392
G1 X146.65 Y118.551 E1.50971
G1 X146.53 Y119.432 E1.52551
G1 X146.332 Y120.298 E1.5413
G1 X146.057 Y121.142 E1.55708
G1 X145.707 Y121.959 E1.57288
G1 X145.284 Y122.74 E1.58867
G1 X144.794 Y123.481 E1.60446
G1 X144.238 Y124.174 E1.62026
G1 X143.799 Y124.643 E1.63168
G1 X143.676 Y124.766 E1.63477
G1 X143.02 Y125.365 E1.65056
G1 X142.313 Y125.903 E1.66635
G1 X141.561 Y126.375 E1.68213
G1 X140.769 Y126.778 E1.69793
G1 X139.944 Y127.108 E1.71373
G1 X139.093 Y127.362 E1.72951
G1 X138.222 Y127.538 E1.74531
G1 X137.339 Y127.636 E1.7611
G1 X136.697 Y127.657 E1.77252
G1 X96.303 Y127.657 E2.49056
G1 X95.416 Y127.617 E2.50634
G1 X94.535 Y127.497 E2.52215
G1 X93.669 Y127.299 E2.53794
G1 X92.825 Y127.024 E2.55372
G1 X92.008 Y126.674 E2.56952
G1 X91.227 Y126.251 E2.58531
G1 X90.486 Y125.761 E2.6011
G1 X89.793 Y125.205 E2.61689
G1 X89.324 Y124.766 E2.62831
G1 X89.201 Y124.643 E2.63141
G1 X88.602 Y123.987 E2.6472
G1 X88.064 Y123.28 E2.66299
G1 X87.592 Y122.528 E2.67877
G1 X87.189 Y121.736 E2.69457
G1 X86.859 Y120.911 E2.71036
G1 X86.605 Y120.06 E2.72615
G1 X86.429 Y119.189 E2.74194
G1 X86.331 Y118.306 E2.75774
G1 X86.31 Y117.664 E2.76916
G1 X86.31 Y97.438 E3.12869
G1 X86.35 Y96.551 E3.14448
G1 X86.47 Y95.67 E3.16028
G1 X86.668 Y94.804 E3.17607
G1 X86.943 Y93.96 E3.19185
G1 X87.293 Y93.143 E3.20765
G1 X87.716 Y92.362 E3.22344
G1 X88.206 Y91.621 E3.23923
G1 X88.762 Y90.928 E3.25502
G1 X89.201 Y90.459 E3.26644
G1 X89.324 Y90.336 E3.26954
M204 S625
M205 X6 Y6
G0 F5454.5 X89.621 Y90.633
M204 S500
M205 X5 Y5
G1 F1200 X90.263 Y90.047 E3.28499
G1 X90.956 Y89.523 E3.30043
G1 X91.695 Y89.065 E3.31589
G1 X92.473 Y88.676 E3.33135
G1 X93.283 Y88.361 E3.3468
G1 X94.118 Y88.121 E3.36224
G1 X94.972 Y87.959 E3.37769
G1 X95.838 Y87.876 E3.39316
G1 X96.303 Y87.865 E3.40143
G1 X136.697 Y87.865 E4.11947
G1 X137.565 Y87.905 E4.13491
G1 X138.426 Y88.025 E4.15037
G1 X139.273 Y88.223 E4.16583
G1 X140.097 Y88.498 E4.18127
G1 X140.893 Y88.848 E4.19673
G1 X141.653 Y89.269 E4.21217
G1 X142.372 Y89.758 E4.22763
G1 X143.042 Y90.312 E4.24308
G1 X143.379 Y90.633 E4.25136
G1 X143.502 Y90.756 E4.25445
G1 X144.088 Y91.398 E4.2699
G1 X144.612 Y92.091 E4.28534
G1 X145.07 Y92.83 E4.3008
G1 X145.459 Y93.608 E4.31626
G1 X145.774 Y94.418 E4.33171
G1 X146.014 Y95.253 E4.34715
G1 X146.176 Y96.107 E4.3626
G1 X146.259 Y96.973 E4.37807
G1 X146.27 Y97.438 E4.38634
G1 X146.27 Y117.664 E4.74587
G1 X146.23 Y118.532 E4.76132
G1 X146.11 Y119.393 E4.77677
G1 X145.912 Y120.24 E4.79223
G1 X145.637 Y121.064 E4.80768
G1 X145.287 Y121.86 E4.82313
G1 X144.866 Y122.62 E4.83858
G1 X144.377 Y123.339 E4.85403
G1 X143.823 Y124.009 E4.86949
G1 X143.502 Y124.346 E4.87776
G1 X143.379 Y124.469 E4.88085
G1 X142.737 Y125.055 E4.89631
G1 X142.044 Y125.579 E4.91175
G1 X141.305 Y126.037 E4.9272
G1 X140.527 Y126.426 E4.94267
G1 X139.717 Y126.741 E4.95811
G1 X138.882 Y126.981 E4.97356
G1 X138.028 Y127.143 E4.98901
G1 X137.162 Y127.226 E5.00447
G1 X136.697 Y127.237 E5.01274
G1 X96.303 Y127.237 E5.73079
G1 X95.435 Y127.197 E5.74623
G1 X94.574 Y127.077 E5.76168
G1 X93.727 Y126.879 E5.77715
G1 X92.903 Y126.604 E5.79259
G1 X92.107 Y126.254 E5.80805
G1 X91.347 Y125.833 E5.82349
G1 X90.628 Y125.344 E5.83895
G1 X89.958 Y124.79 E5.8544
G1 X89.621 Y124.469 E5.86267
G1 X89.498 Y124.346 E5.86577
G1 X88.912 Y123.704 E5.88122
G1 X88.388 Y123.011 E5.89666
G1 X87.93 Y122.272 E5.91212
G1 X87.541 Y121.494 E5.92758
G1 X87.226 Y120.684 E5.94303
G1 X86.986 Y119.849 E5.95847
G1 X86.824 Y118.995 E5.97392
G1 X86.741 Y118.129 E5.98939
G1 X86.73 Y117.664 E5.99765
G1 X86.73 Y97.438 E6.35719
G1 X86.77 Y96.57 E6.37264
G1 X86.89 Y95.709 E6.38809
G1 X87.088 Y94.862 E6.40355
G1 X87.363 Y94.038 E6.41899
G1 X87.713 Y93.242 E6.43445
G1 X88.134 Y92.482 E6.4499
G1 X88.623 Y91.763 E6.46535
G1 X89.177 Y91.093 E6.48081
G1 X89.498 Y90.756 E6.48908
G1 X89.621 Y90.633 E6.49217
M204 S625
M205 X6 Y6
G0 F5454.5 X89.918 Y90.93
M204 S500
M205 X5 Y5
G1 F1200 X90.546 Y90.358 E6.50727
G1 X91.226 Y89.848 E6.52238
G1 X91.95 Y89.403 E6.53749
G1 X92.713 Y89.029 E6.55259
G1 X93.508 Y88.729 E6.5677
G1 X94.327 Y88.504 E6.58279
G1 X95.164 Y88.357 E6.5979
G1 X96.303 Y88.285 E6.61819
G1 X136.697 Y88.285 E7.33623
G1 X137.546 Y88.325 E7.35134
G1 X138.387 Y88.445 E7.36644
G1 X139.213 Y88.643 E7.38154
G1 X140.017 Y88.918 E7.39664
G1 X140.792 Y89.267 E7.41175
G1 X141.53 Y89.687 E7.42685
G1 X142.226 Y90.175 E7.44196
G1 X143.082 Y90.93 E7.46225
G1 X143.205 Y91.053 E7.46534
G1 X143.777 Y91.681 E7.48044
G1 X144.287 Y92.361 E7.49555
G1 X144.732 Y93.085 E7.51065
G1 X145.106 Y93.848 E7.52576
G1 X145.406 Y94.643 E7.54086
G1 X145.631 Y95.462 E7.55596
G1 X145.778 Y96.299 E7.57107
G1 X145.85 Y97.438 E7.59136
G1 X145.85 Y117.664 E7.95089
G1 X145.81 Y118.513 E7.966
G1 X145.69 Y119.354 E7.9811
G1 X145.492 Y120.18 E7.9962
G1 X145.217 Y120.984 E8.01131
G1 X144.868 Y121.759 E8.02641
G1 X144.448 Y122.497 E8.04151
G1 X143.96 Y123.193 E8.05662
G1 X143.205 Y124.049 E8.07691
G1 X143.082 Y124.172 E8.08
G1 X142.454 Y124.744 E8.0951
G1 X141.774 Y125.254 E8.11021
G1 X141.05 Y125.699 E8.12532
G1 X140.287 Y126.073 E8.14042
G1 X139.492 Y126.373 E8.15553
G1 X138.673 Y126.598 E8.17062
G1 X137.836 Y126.745 E8.18573
G1 X136.697 Y126.817 E8.20602
G1 X96.303 Y126.817 E8.92406
G1 X95.454 Y126.777 E8.93917
G1 X94.613 Y126.657 E8.95427
G1 X93.787 Y126.459 E8.96937
G1 X92.983 Y126.184 E8.98447
G1 X92.208 Y125.835 E8.99958
G1 X91.47 Y125.415 E9.01468
G1 X90.774 Y124.927 E9.02979
G1 X89.918 Y124.172 E9.05008
G1 X89.795 Y124.049 E9.05317
G1 X89.223 Y123.421 E9.06827
G1 X88.713 Y122.741 E9.08338
G1 X88.268 Y122.017 E9.09848
G1 X87.894 Y121.254 E9.11359
G1 X87.594 Y120.459 E9.12869
G1 X87.369 Y119.64 E9.14379
G1 X87.222 Y118.803 E9.1589
G1 X87.15 Y117.664 E9.17918
G1 X87.15 Y97.438 E9.53872
G1 X87.19 Y96.589 E9.55383
G1 X87.31 Y95.748 E9.56893
G1 X87.508 Y94.922 E9.58403
G1 X87.783 Y94.118 E9.59913
G1 X88.132 Y93.343 E9.61424
G1 X88.552 Y92.605 E9.62934
G1 X89.04 Y91.909 E9.64445
G1 X89.795 Y91.053 E9.66474
G1 X89.918 Y90.93 E9.66783
M204 S625
M205 X6 Y6
G0 F5454.5 X90.215 Y91.227
M204 S500
M205 X5 Y5
G1 F1200 X90.829 Y90.669 E9.68258
G1 X91.494 Y90.173 E9.69732
G1 X92.204 Y89.743 E9.71208
G1 X92.952 Y89.384 E9.72683
G1 X93.731 Y89.098 E9.74158
G1 X94.534 Y88.889 E9.75633
G1 X95.353 Y88.758 E9.77107
G1 X96.303 Y88.705 E9.78799
G1 X136.697 Y88.705 E10.50603
G1 X137.526 Y88.745 E10.52078
G1 X138.347 Y88.865 E10.53553
G1 X139.152 Y89.063 E10.55027
G1 X139.935 Y89.337 E10.56501
G1 X140.688 Y89.686 E10.57977
G1 X141.404 Y90.106 E10.59452
G1 X142.076 Y90.592 E10.60926
G1 X142.785 Y91.227 E10.62618
G1 X142.908 Y91.35 E10.62928
G1 X143.466 Y91.964 E10.64402
G1 X143.962 Y92.629 E10.65877
G1 X144.392 Y93.339 E10.67353
G1 X144.751 Y94.087 E10.68827
G1 X145.037 Y94.866 E10.70303
G1 X145.246 Y95.669 E10.71778
G1 X145.377 Y96.488 E10.73252
G1 X145.43 Y97.438 E10.74943
G1 X145.43 Y117.664 E11.10897
G1 X145.39 Y118.493 E11.12372
G1 X145.27 Y119.314 E11.13847
G1 X145.072 Y120.119 E11.15321
G1 X144.798 Y120.902 E11.16795
G1 X144.449 Y121.655 E11.18271
G1 X144.029 Y122.371 E11.19746
G1 X143.543 Y123.043 E11.21221
G1 X142.908 Y123.752 E11.22912
G1 X142.785 Y123.875 E11.23222
G1 X142.171 Y124.433 E11.24696
G1 X141.506 Y124.929 E11.26171
G1 X140.796 Y125.359 E11.27647
G1 X140.048 Y125.718 E11.29122
G1 X139.269 Y126.004 E11.30597
G1 X138.466 Y126.213 E11.32072
G1 X137.647 Y126.344 E11.33546
G1 X136.697 Y126.397 E11.35237
G1 X96.303 Y126.397 E12.07042
G1 X95.474 Y126.357 E12.08517
G1 X94.653 Y126.237 E12.09992
G1 X93.848 Y126.039 E12.11465
G1 X93.065 Y125.765 E12.1294
G1 X92.312 Y125.416 E12.14415
G1 X91.596 Y124.996 E12.15891
G1 X90.924 Y124.51 E12.17365
G1 X90.215 Y123.875 E12.19057
G1 X90.092 Y123.752 E12.19366
G1 X89.534 Y123.138 E12.20841
G1 X89.038 Y122.473 E12.22316
G1 X88.608 Y121.763 E12.23791
G1 X88.249 Y121.015 E12.25266
G1 X87.963 Y120.236 E12.26741
G1 X87.754 Y119.433 E12.28216
G1 X87.623 Y118.614 E12.29691
G1 X87.57 Y117.664 E12.31382
G1 X87.57 Y97.438 E12.67336
G1 X87.61 Y96.609 E12.68811
G1 X87.73 Y95.788 E12.70286
G1 X87.928 Y94.983 E12.7176
G1 X88.202 Y94.2 E12.73234
G1 X88.551 Y93.447 E12.74709
G1 X88.971 Y92.731 E12.76185
G1 X89.457 Y92.059 E12.77659
G1 X90.092 Y91.35 E12.79351
G1 X90.215 Y91.227 E12.7966
M204 S625
M205 X6 Y6
G0 F5454.5 X90.512 Y91.524
M204 S500
M205 X5 Y5
G1 F1200 X91.112 Y90.981 E12.81099
G1 X91.762 Y90.499 E12.82537
G1 X92.457 Y90.084 E12.83976
G1 X93.189 Y89.74 E12.85414
G1 X93.952 Y89.47 E12.86853
G1 X94.737 Y89.276 E12.8829
G1 X95.538 Y89.161 E12.89729
G1 X96.303 Y89.125 E12.9109
G1 X136.697 Y89.125 E13.62894
G1 X137.505 Y89.165 E13.64332
G1 X138.306 Y89.285 E13.65772
G1 X139.09 Y89.482 E13.67209
G1 X139.851 Y89.757 E13.68647
G1 X140.582 Y90.105 E13.70086
G1 X141.274 Y90.524 E13.71524
G1 X141.922 Y91.008 E13.72962
G1 X142.488 Y91.524 E13.74324
G1 X142.611 Y91.647 E13.74633
G1 X143.154 Y92.247 E13.76071
G1 X143.636 Y92.897 E13.7751
G1 X144.051 Y93.592 E13.78949
G1 X144.395 Y94.324 E13.80386
G1 X144.665 Y95.087 E13.81825
G1 X144.859 Y95.872 E13.83263
G1 X144.974 Y96.673 E13.84701
G1 X145.01 Y97.438 E13.86062
G1 X145.01 Y117.664 E14.22016
G1 X144.97 Y118.472 E14.23454
G1 X144.85 Y119.273 E14.24894
G1 X144.653 Y120.057 E14.26331
G1 X144.378 Y120.818 E14.27769
G1 X144.03 Y121.549 E14.29208
G1 X143.611 Y122.241 E14.30646
G1 X143.127 Y122.889 E14.32084
G1 X142.611 Y123.455 E14.33446
G1 X142.488 Y123.578 E14.33755
G1 X141.888 Y124.121 E14.35193
G1 X141.238 Y124.603 E14.36632
G1 X140.543 Y125.018 E14.38071
G1 X139.811 Y125.362 E14.39508
G1 X139.048 Y125.632 E14.40947
G1 X138.263 Y125.826 E14.42384
G1 X137.462 Y125.941 E14.43823
G1 X136.697 Y125.977 E14.45184
G1 X96.303 Y125.977 E15.16989
G1 X95.495 Y125.937 E15.18427
G1 X94.694 Y125.817 E15.19866
G1 X93.91 Y125.62 E15.21303
G1 X93.149 Y125.345 E15.22742
G1 X92.418 Y124.997 E15.24181
G1 X91.726 Y124.578 E15.25619
G1 X91.078 Y124.094 E15.27057
G1 X90.512 Y123.578 E15.28418
G1 X90.389 Y123.455 E15.28727
G1 X89.846 Y122.855 E15.30166
G1 X89.364 Y122.205 E15.31604
G1 X88.949 Y121.51 E15.33043
G1 X88.605 Y120.778 E15.34481
G1 X88.335 Y120.015 E15.3592
G1 X88.141 Y119.23 E15.37357
G1 X88.026 Y118.429 E15.38795
G1 X87.99 Y117.664 E15.40157
G1 X87.99 Y97.438 E15.76111
G1 X88.03 Y96.63 E15.77549
G1 X88.15 Y95.829 E15.78988
G1 X88.347 Y95.045 E15.80425
G1 X88.622 Y94.284 E15.81864
G1 X88.97 Y93.553 E15.83303
G1 X89.389 Y92.861 E15.84741
G1 X89.873 Y92.213 E15.86179
G1 X90.389 Y91.647 E15.8754
G1 X90.512 Y91.524 E15.87849
M204 S625
M205 X6 Y6
G0 F5454.5 X90.809 Y91.821
M204 S500
M205 X5 Y5
G1 F1200 X91.394 Y91.292 E15.89251
G1 X92.029 Y90.826 E15.90651
G1 X92.708 Y90.426 E15.92052
G1 X93.425 Y90.098 E15.93454
G1 X94.171 Y89.843 E15.94855
G1 X94.939 Y89.666 E15.96256
G1 X95.721 Y89.567 E15.97657
G1 X96.303 Y89.545 E15.98693
G1 X136.697 Y89.545 E16.70497
G1 X137.484 Y89.585 E16.71898
G1 X138.263 Y89.704 E16.73299
G1 X139.026 Y89.902 E16.747
G1 X139.765 Y90.176 E16.76101
G1 X140.472 Y90.524 E16.77502
G1 X141.141 Y90.941 E16.78903
G1 X141.764 Y91.424 E16.80304
G1 X142.191 Y91.821 E16.81341
G1 X142.314 Y91.944 E16.8165
G1 X142.843 Y92.529 E16.83052
G1 X143.309 Y93.164 E16.84452
G1 X143.709 Y93.843 E16.85853
G1 X144.037 Y94.56 E16.87254
G1 X144.292 Y95.306 E16.88656
G1 X144.469 Y96.074 E16.90057
G1 X144.568 Y96.856 E16.91458
G1 X144.59 Y97.438 E16.92493
G1 X144.59 Y117.664 E17.28447
G1 X144.55 Y118.451 E17.29848
G1 X144.431 Y119.23 E17.31248
G1 X144.233 Y119.993 E17.3265
G1 X143.959 Y120.732 E17.34051
G1 X143.611 Y121.439 E17.35451
G1 X143.194 Y122.108 E17.36853
G1 X142.711 Y122.731 E17.38254
G1 X142.314 Y123.158 E17.3929
G1 X142.191 Y123.281 E17.396
G1 X141.606 Y123.81 E17.41002
G1 X140.971 Y124.276 E17.42402
G1 X140.292 Y124.676 E17.43803
G1 X139.575 Y125.004 E17.45204
G1 X138.829 Y125.259 E17.46606
G1 X138.061 Y125.436 E17.48007
G1 X137.279 Y125.535 E17.49408
G1 X136.697 Y125.557 E17.50443
G1 X96.303 Y125.557 E18.22247
G1 X95.516 Y125.517 E18.23648
G1 X94.737 Y125.398 E18.25049
G1 X93.974 Y125.2 E18.2645
G1 X93.235 Y124.926 E18.27851
G1 X92.528 Y124.578 E18.29252
G1 X91.859 Y124.161 E18.30653
G1 X91.236 Y123.678 E18.32055
G1 X90.809 Y123.281 E18.33091
G1 X90.686 Y123.158 E18.334
G1 X90.157 Y122.573 E18.34802
G1 X89.691 Y121.938 E18.36202
G1 X89.291 Y121.259 E18.37603
G1 X88.963 Y120.542 E18.39005
G1 X88.708 Y119.796 E18.40406
G1 X88.531 Y119.028 E18.41807
G1 X88.432 Y118.246 E18.43208
G1 X88.41 Y117.664 E18.44244
G1 X88.41 Y97.438 E18.80197
G1 X88.45 Y96.651 E18.81598
G1 X88.569 Y95.872 E18.82999
G1 X88.767 Y95.109 E18.844
G1 X89.041 Y94.37 E18.85801
G1 X89.389 Y93.663 E18.87202
G1 X89.806 Y92.994 E18.88603
G1 X90.289 Y92.371 E18.90005
G1 X90.686 Y91.944 E18.91041
G1 X90.809 Y91.821 E18.9135
M204 S625
M205 X6 Y6
G0 F5454.5 X91.106 Y92.118
M204 S500
M205 X5 Y5
G1 F1200 X91.675 Y91.605 E18.92712
G1 X92.295 Y91.154 E18.94075
G1 X92.959 Y90.77 E18.95438
G1 X93.659 Y90.457 E18.96801
G1 X94.387 Y90.219 E18.98163
G1 X95.137 Y90.058 E18.99526
G1 X95.899 Y89.976 E19.00889
G1 X96.303 Y89.965 E19.01607
G1 X136.697 Y89.965 E19.73412
G1 X137.463 Y90.005 E19.74775
G1 X138.22 Y90.124 E19.76137
G1 X138.96 Y90.322 E19.77499
G1 X139.676 Y90.596 E19.78862
G1 X140.36 Y90.943 E19.80225
G1 X141.004 Y91.359 E19.81588
G1 X141.601 Y91.84 E19.82951
G1 X141.894 Y92.118 E19.83669
G1 X142.017 Y92.241 E19.83978
G1 X142.53 Y92.81 E19.8534
G1 X142.981 Y93.43 E19.86703
G1 X143.365 Y94.094 E19.88066
G1 X143.678 Y94.794 E19.89429
G1 X143.916 Y95.522 E19.90791
G1 X144.077 Y96.272 E19.92154
G1 X144.159 Y97.034 E19.93517
G1 X144.17 Y97.438 E19.94235
G1 X144.17 Y117.664 E20.30189
G1 X144.13 Y118.43 E20.31552
G1 X144.011 Y119.187 E20.32914
G1 X143.813 Y119.927 E20.34276
G1 X143.539 Y120.643 E20.35639
G1 X143.192 Y121.327 E20.37002
G1 X142.776 Y121.971 E20.38365
G1 X142.295 Y122.568 E20.39728
G1 X142.017 Y122.861 E20.40446
G1 X141.894 Y122.984 E20.40755
G1 X141.325 Y123.497 E20.42117
G1 X140.705 Y123.948 E20.4348
G1 X140.041 Y124.332 E20.44843
G1 X139.341 Y124.645 E20.46206
G1 X138.613 Y124.883 E20.47568
G1 X137.863 Y125.044 E20.48931
G1 X137.101 Y125.126 E20.50294
G1 X136.697 Y125.137 E20.51012
G1 X96.303 Y125.137 E21.22816
G1 X95.537 Y125.097 E21.2418
G1 X94.78 Y124.978 E21.25542
G1 X94.04 Y124.78 E21.26904
G1 X93.324 Y124.506 E21.28266
G1 X92.64 Y124.159 E21.2963
G1 X91.996 Y123.743 E21.30993
G1 X91.399 Y123.262 E21.32355
G1 X91.106 Y122.984 E21.33073
